assets/icons/illus/file-type-zip.svg

<svg xmlns="http://www.w3.org/2000/svg" width="32" height="32"><g fill="none" fill-rule="evenodd" transform="translate(3)"><rect width="26" height="32" fill="#D1D5DB" rx="2"/><path fill="#4F5B69" d="M11 1h2v2h-2V1zm0 4h2v2h-2V5zm0 4h2v2h-2V9zm2-6h2v2h-2V3zm0 4h2v2h-2V7zm-2 5h4v7h-4v-7zm1 1h2v2h-2v-2z"/></g></svg>

<svg xmlns="http://www.w3.org/2000/svg" width="32" height="32" viewBox="0 0 32 32">
  <g fill="none" fill-rule="evenodd" transform="translate(3)">
    <rect width="26" height="32" fill="#D1D5DB" rx="2"/>
    <path fill="#4F5B69" d="M11,1 L13,1 L13,3 L11,3 L11,1 Z M11,5 L13,5 L13,7 L11,7 L11,5 Z M11,9 L13,9 L13,11 L11,11 L11,9 Z M13,3 L15,3 L15,5 L13,5 L13,3 Z M13,7 L15,7 L15,9 L13,9 L13,7 Z M11,12 L15,12 L15,19 L11,19 L11,12 Z M12,13 L14,13 L14,15 L12,15 L12,13 Z"/>
  </g>
</svg>
